X:40
T:The Green Meadow
N:Reel     Allan's  #40
N:Trad/Anon
B:Allan's Irish Fiddler (pub. Mozart Allen,  Glascow) date unknown
Z:FROM ALLAN'S TO NOTEWORTHY, FROM NOTEWORTHY TO ABC, MIDI AND .TXT BY VINCE
BRENNAN Dec. 2002 (HTTP://WWW.SOSYOURMOM.COM)
I:abc2nwc
M:2/2
L:1/8
K:G
((3DEF)|G2(GA) BGBd|(ef)ge (dB)AG|EAAG ABAG|
EAAG AcBA|GFGA BGBd|efge dBAG|EGGF GAGE|DGGF G2:|
|:(ga)|b2bg abaf|gage d2Bd|eaag abag|eaag a2(ga)|
babg abaf|gage d2(Bd)|eggf gage|[1dggf g2:|[2dgga gedB||
G2(GA) BGBd|(ef)ge (dB)AG|EAAG ABAG|EAAG AcBA|
GFGA BGBd|efge dBAG|EGGF GAGE|DGGF G2|]
